iphone/Maps/Images.xcassets/Interface/Search/Categories/shopping.imageset/shopping_light.svg

<svg height="28" viewBox="0 0 28 28" width="28" xmlns="http://www.w3.org/2000/svg"><g fill="none" opacity=".898664"><circle cx="14" cy="14" fill="#be75a3" fill-rule="evenodd" r="14"/><path d="m19.4443861 8.88885h-1.5555166c0-2.14666667-1.7421833-3.88885-3.88885-3.88885s-3.88885 1.74218333-3.88885 3.88885h-1.55551668c-.85555167 0-1.54781667.7-1.54781667 1.5555167l-.00777782 9.3333333c0 .8555517.7 1.5555167 1.55551667 1.5555167h10.88885c.8555517 0 1.5555167-.7 1.5555167-1.5555167v-9.3333333c0-.8555517-.7-1.5555167-1.5555167-1.5555167zm-5.4444833-2.33333333c1.29115 0 2.3333333 1.04221833 2.3333333 2.33333333h-4.6666666c0-1.29115 1.0422183-2.33333333 2.3333333-2.33333333zm0 7.77781663c-2.1466667 0-3.88885-1.7421833-3.88885-3.88885h1.5555167c0 1.29115 1.0422183 2.3333334 2.3333333 2.3333334s2.3333333-1.0422184 2.3333333-2.3333334h1.5555167c0 2.1466667-1.7421833 3.88885-3.88885 3.88885z" fill="#fff"/></g></svg>

<?xml version="1.0" encoding="UTF-8"?>
<svg width="28px" height="28px" viewBox="0 0 28 28" version="1.1" xmlns="http://www.w3.org/2000/svg" xmlns:xlink="http://www.w3.org/1999/xlink">
    <title>shopping_light</title>
    <g id="shopping_light" stroke="none" fill="none" fill-rule="evenodd">
        <path d="M14,0 C21.7319865,0 28,6.2680135 28,14 C28,21.7319865 21.7319865,28 14,28 C6.2680135,28 0,21.7319865 0,14 C0,6.2680135 6.2680135,0 14,0 Z M14.0000195,5 C11.8533528,5 10.1111695,6.74218333 10.1111695,8.88885 L8.55565282,8.88885 C7.70010115,8.88885 7.00783615,9.58885 7.00783615,10.4443667 L7.00005833,19.7777 C7.00005833,20.6332517 7.70005833,21.3332167 8.555575,21.3332167 L19.444425,21.3332167 C20.2999767,21.3332167 20.9999417,20.6332167 20.9999417,19.7777 L20.9999417,10.4443667 C20.9999417,9.588815 20.2999417,8.88885 19.444425,8.88885 L17.8888695,8.88885 C17.8888695,6.74218333 16.1466861,5 14.0000195,5 Z M11.6665695,10.4444833 C11.6665695,11.7356333 12.7087878,12.7778167 13.9999028,12.7778167 C15.2910178,12.7778167 16.3332362,11.7355983 16.3332362,10.4444833 L17.8887528,10.4444833 C17.8887528,12.59115 16.1465695,14.3333333 13.9999028,14.3333333 C11.8532362,14.3333333 10.1110528,12.59115 10.1110528,10.4444833 L11.6665695,10.4444833 Z M13.9999028,6.55551667 C15.2910528,6.55551667 16.3332362,7.597735 16.3332362,8.88885 L11.6665695,8.88885 C11.6665695,7.5977 12.7087878,6.55551667 13.9999028,6.55551667 Z" id="Shape" fill="#BE75A3"></path>
    </g>
</svg>
